packages/foundations/assets/icons/functional/images/transportation/scooter_28_inverted.svg

<svg width="28" height="28" viewBox="0 0 28 28" fill="none" xmlns="http://www.w3.org/2000/svg">
<g clip-path="url(#clip0_2214_6754)">
<path fill-rule="evenodd" clip-rule="evenodd" d="M10.3661 18.6734C10.4358 20.6446 8.86061 22.1812 6.99998 22.1812C5.19748 22.1812 3.72583 20.7659 3.63561 18.9858V18.6734L2.62498 18.6812C2.24581 18.6812 1.93291 18.3975 1.88702 18.0308L1.88123 16.1875C1.88123 13.9072 3.68002 12.0468 5.93595 11.9479L10.549 11.9437L9.97355 10.0237C9.96139 9.98285 9.92143 9.93123 9.84898 9.93123C9.80068 9.93123 8.55934 9.93123 6.12498 9.93123C5.71421 9.93123 5.38123 9.59824 5.38123 9.18748C5.38123 8.80831 5.7037 8.44373 6.12498 8.44373H9.84898C10.5192 8.44373 11.1158 8.85676 11.3556 9.47197L13.678 17.1937H16.282L21.1312 11.536V8.31248C21.1312 7.79425 20.7383 7.36682 20.2345 7.31214L17.5 7.30623C17.0892 7.30623 16.7562 6.97324 16.7562 6.56248C16.7562 6.18331 17.0531 5.81873 17.5 5.81873H20.125C21.4526 5.81873 22.5386 6.85735 22.6145 8.166L22.6189 11.8125C22.6189 11.9545 22.5675 12.1394 22.4397 12.2965C22.3545 12.4013 20.6045 14.4429 17.1897 18.4215C17.0719 18.5589 16.865 18.689 16.625 18.6812C16.465 18.676 14.3787 18.6734 10.3661 18.6734ZM22.75 15.4437C24.6106 15.4437 26.1187 16.9518 26.1187 18.8125C26.1187 20.6731 24.6106 22.1812 22.75 22.1812C20.8893 22.1812 19.3812 20.6731 19.3812 18.8125C19.3812 16.9518 20.8893 15.4437 22.75 15.4437ZM5.11873 18.6812C5.11873 19.9201 5.96086 20.6937 6.99998 20.6937C7.99391 20.6937 8.93553 19.9226 8.88123 18.6734C8.88123 18.6786 7.62706 18.6812 5.11873 18.6812ZM22.75 16.9312C21.7109 16.9312 20.8687 17.7734 20.8687 18.8125C20.8687 19.8516 21.7109 20.6937 22.75 20.6937C23.7891 20.6937 24.6312 19.8516 24.6312 18.8125C24.6312 17.7734 23.7891 16.9312 22.75 16.9312Z" fill="#1A1C1F"/>
</g>
<defs>
<clipPath id="clip0_2214_6754">
<rect width="28" height="28" fill="white"/>
</clipPath>
</defs>
</svg>

<svg xmlns="http://www.w3.org/2000/svg" width="28" height="28" fill="none"><g clip-path="url(#a)"><path fill="#1A1C1F" fill-rule="evenodd" d="M10.366 18.673a3.369 3.369 0 0 1-6.73.312v-.312l-1.011.008a.744.744 0 0 1-.738-.65l-.006-1.843c0-2.28 1.799-4.141 4.055-4.24l4.613-.004-.575-1.92a.13.13 0 0 0-.125-.093H6.125a.744.744 0 0 1-.744-.744c0-.379.323-.743.744-.743h3.724c.67 0 1.267.413 1.507 1.028l2.322 7.722h2.604l4.85-5.658V8.312c0-.518-.394-.945-.898-1L17.5 7.306a.744.744 0 1 1 0-1.487h2.625a2.495 2.495 0 0 1 2.49 2.347l.004 3.646a.8.8 0 0 1-.18.485q-.126.156-5.25 6.125a.74.74 0 0 1-.564.26q-.24-.009-6.259-.009m12.384-3.23a3.369 3.369 0 1 1 0 6.738 3.369 3.369 0 0 1 0-6.737M5.119 18.682c0 1.24.842 2.013 1.881 2.013.994 0 1.936-.771 1.881-2.02q0 .007-3.762.007m17.631-1.75a1.881 1.881 0 1 0 0 3.763 1.881 1.881 0 0 0 0-3.763" clip-rule="evenodd"/></g><defs><clipPath id="a"><path fill="#fff" d="M0 0h28v28H0z"/></clipPath></defs></svg>
